antibot/app/images/dist/main-list-icon.svg

<svg width="30" height="30" viewBox="0 0 30 30" fill="none" xmlns="http://www.w3.org/2000/svg">
<path d="M5.78253 11.0975C6.28205 9.91001 7.00807 8.83118 7.92003 7.92125C8.82998 7.00873 9.90934 6.28265 11.0975 5.78375C13.5469 4.76617 16.2973 4.74777 18.76 5.7325C18.7847 6.54184 19.1239 7.3097 19.7055 7.87308C20.2871 8.43647 21.0653 8.75103 21.875 8.75C23.6075 8.75 25 7.3575 25 5.625C25 3.8925 23.6075 2.5 21.875 2.5C21.0138 2.5 20.235 2.845 19.6713 3.40625C16.6325 2.19 13.1425 2.20875 10.1275 3.48C8.64003 4.105 7.30253 5.005 6.15253 6.15375C4.99137 7.31525 4.07099 8.69461 3.4442 10.2127C2.81741 11.7307 2.49655 13.3576 2.50003 15H5.00003C5.00003 13.6425 5.26378 12.33 5.78253 11.0975ZM24.2163 18.9025C23.715 20.0925 22.995 21.1625 22.0788 22.0788C21.1625 22.995 20.0925 23.715 18.9013 24.2162C16.4519 25.2338 13.7015 25.2522 11.2388 24.2675C11.2147 23.4582 10.8759 22.6901 10.2945 22.1266C9.71301 21.5632 8.93472 21.2487 8.12503 21.25C6.39253 21.25 5.00003 22.6425 5.00003 24.375C5.00003 26.1075 6.39253 27.5 8.12503 27.5C8.98628 27.5 9.76503 27.155 10.3288 26.5937C11.8132 27.193 13.3992 27.5006 15 27.5C17.4582 27.5047 19.863 26.7834 21.9127 25.4264C23.9624 24.0694 25.5656 22.1373 26.5213 19.8725C27.1706 18.3303 27.5035 16.6733 27.5 15H25C25.0032 16.3402 24.7366 17.6674 24.2163 18.9025Z" fill="#57B36E"/>
<path d="M14.9996 9.32715C11.8721 9.32715 9.32715 11.8721 9.32715 14.9996C9.32715 18.1271 11.8721 20.6721 14.9996 20.6721C18.1271 20.6721 20.6721 18.1271 20.6721 14.9996C20.6721 11.8721 18.1271 9.32715 14.9996 9.32715Z" fill="#57B36E"/>
</svg>

<svg width="30" height="30" fill="none" xmlns="http://www.w3.org/2000/svg"><path d="M5.783 11.098A9.921 9.921 0 0 1 7.92 7.92a9.9 9.9 0 0 1 3.178-2.137 10.15 10.15 0 0 1 7.662-.051 3.112 3.112 0 0 0 3.115 3.017A3.117 3.117 0 0 0 25 5.625 3.117 3.117 0 0 0 21.875 2.5c-.861 0-1.64.345-2.204.906-3.038-1.216-6.528-1.197-9.543.074A12.475 12.475 0 0 0 2.5 15h2.499c0-1.357.264-2.67.783-3.902Zm18.433 7.804a9.924 9.924 0 0 1-2.137 3.177 9.914 9.914 0 0 1-3.178 2.137 10.15 10.15 0 0 1-7.662.051 3.11 3.11 0 0 0-3.114-3.017A3.117 3.117 0 0 0 5 24.375 3.117 3.117 0 0 0 8.125 27.5c.861 0 1.64-.345 2.204-.906A12.46 12.46 0 0 0 15 27.5a12.479 12.479 0 0 0 11.521-7.628c.65-1.542.982-3.199.979-4.872H25a9.991 9.991 0 0 1-.784 3.902Z" fill="#57B36E"/><path d="M15 9.327A5.68 5.68 0 0 0 9.327 15 5.68 5.68 0 0 0 15 20.672 5.68 5.68 0 0 0 20.672 15 5.68 5.68 0 0 0 15 9.327Z" fill="#57B36E"/></svg>
